X:1
T: Burns' Smoking Club
C:
R:Reel
Q: 232
K:G
M:4/4
L:1/8
|:d|g3e d2 B2|cB ce d2 B2|g3e d2 B2|ce dB G3d|
g3e d2 B2|cB ce d2 B2|g3e d2 B2|ce dB G3:|
|:d|g2 g2 a2 a2|b2 b2 a2 a2|g2 g2 a2 a2|bc' ba g3d|
gd ^cd ad cd|bd ^cd ad cd|gd ^cd ad cd|bc' ba g3:|
